X:1
T:Ross's Reel #4  (easier version)
M:C|
R:Reel
K:F
|:a2|"C"g3 f e2 d2|"F"cdcB A2 GF|"C7"ECEG c2 cB|"F"AFAc f2 a2|
"C7"g3 f e2 d2|"F"cdcB A2 GF|"C7"EFGA Bcde|"F"f2 a2 f2 :|
|:cB|"F"Accc dccc|A2f2a2f2|"F"Accc dccc|A2f2a2f2|
"C7"Accc dccc|=B2e2g2_b2|"C7"=B2e2g2_b2|"C7"a2g2 "F"f2:|

